scalable/apps/preferences-desktop-wallpaper.svg

<?xml version="1.0" encoding="UTF-8" standalone="no"?>
<!-- Generator: Adobe Illustrator 19.0.0, SVG Export Plug-In . SVG Version: 6.00 Build 0)  -->

<svg
   xmlns:dc="http://purl.org/dc/elements/1.1/"
   xmlns:cc="http://creativecommons.org/ns#"
   xmlns:rdf="http://www.w3.org/1999/02/22-rdf-syntax-ns#"
   xmlns:svg="http://www.w3.org/2000/svg"
   xmlns="http://www.w3.org/2000/svg"
   xmlns:xlink="http://www.w3.org/1999/xlink"
   xmlns:sodipodi="http://sodipodi.sourceforge.net/DTD/sodipodi-0.dtd"
   xmlns:inkscape="http://www.inkscape.org/namespaces/inkscape"
   version="1.1"
   id="Capa_1"
   x="0px"
   y="0px"
   viewBox="0 0 48 48"
   xml:space="preserve"
   sodipodi:docname="preferences-desktop-wallpaper.svg"
   width="48"
   height="48"
   inkscape:version="0.92.3 (2405546, 2018-03-11)"><metadata
   id="metadata41"><rdf:RDF><cc:Work
       rdf:about=""><dc:format>image/svg+xml</dc:format><dc:type
         rdf:resource="http://purl.org/dc/dcmitype/StillImage" /><dc:title /></cc:Work></rdf:RDF></metadata><defs
   id="defs39"><linearGradient
     inkscape:collect="always"
     id="linearGradient907"><stop
       style="stop-color:#000000;stop-opacity:1;"
       offset="0"
       id="stop903" /><stop
       style="stop-color:#000000;stop-opacity:0;"
       offset="1"
       id="stop905" /></linearGradient><linearGradient
     inkscape:collect="always"
     id="linearGradient885"><stop
       style="stop-color:#515151;stop-opacity:1"
       offset="0"
       id="stop881" /><stop
       id="stop893"
       offset="0.19710521"
       style="stop-color:#2b2b2b;stop-opacity:1" /><stop
       id="stop891"
       offset="0.5325253"
       style="stop-color:#1b1b1b;stop-opacity:1" /><stop
       style="stop-color:#000000;stop-opacity:1"
       offset="1"
       id="stop883" /></linearGradient><linearGradient
     x1="-83.756935"
     y1="-7.8379993"
     x2="-92.222527"
     y2="27.521217"
     id="linearGradient5588"
     xlink:href="#linearGradient3202"
     gradientUnits="userSpaceOnUse"
     gradientTransform="matrix(0.5857566,-0.140767,0.1402401,0.5879573,74.307775,0.1578927)" /><linearGradient
     id="linearGradient3202"><stop
       id="stop3204"
       style="stop-color:white;stop-opacity:1"
       offset="0" /><stop
       id="stop3206"
       style="stop-color:#d3eefc;stop-opacity:1"
       offset="1" /></linearGradient><radialGradient
     inkscape:collect="always"
     xlink:href="#linearGradient885"
     id="radialGradient889"
     cx="29.943438"
     cy="21.008209"
     fx="29.943438"
     fy="21.008209"
     r="9.8588238"
     gradientTransform="matrix(0.64332464,-1.3045879,1.4689607,0.72438106,-20.170648,44.57531)"
     gradientUnits="userSpaceOnUse" /><linearGradient
     inkscape:collect="always"
     xlink:href="#linearGradient907"
     id="linearGradient909"
     x1="11.845447"
     y1="6.2801914"
     x2="47.490665"
     y2="39.156498"
     gradientUnits="userSpaceOnUse" /></defs><sodipodi:namedview
   pagecolor="#ffffff"
   bordercolor="#666666"
   borderopacity="1"
   objecttolerance="10"
   gridtolerance="10"
   guidetolerance="10"
   inkscape:pageopacity="0"
   inkscape:pageshadow="2"
   inkscape:window-width="1366"
   inkscape:window-height="719"
   id="namedview37"
   showgrid="false"
   showguides="false"
   inkscape:guide-bbox="true"
   inkscape:zoom="3.7565048"
   inkscape:cx="24"
   inkscape:cy="24"
   inkscape:window-x="0"
   inkscape:window-y="25"
   inkscape:window-maximized="1"
   inkscape:current-layer="Capa_1"><sodipodi:guide
     position="35.670588,39.529412"
     orientation="0.70710678,0.70710678"
     id="guide895"
     inkscape:locked="false" /><sodipodi:guide
     position="13.176471,21.176471"
     orientation="0.70710678,0.70710678"
     id="guide897"
     inkscape:locked="false" /><sodipodi:guide
     position="14.539062,16.398438"
     orientation="0.70710678,0.70710678"
     id="guide899"
     inkscape:locked="false" /></sodipodi:namedview>


<g
   id="g6"
   transform="translate(0,-464)">
</g>
<g
   id="g8"
   transform="translate(0,-464)">
</g>
<g
   id="g10"
   transform="translate(0,-464)">
</g>
<g
   id="g12"
   transform="translate(0,-464)">
</g>
<g
   id="g14"
   transform="translate(0,-464)">
</g>
<g
   id="g16"
   transform="translate(0,-464)">
</g>
<g
   id="g18"
   transform="translate(0,-464)">
</g>
<g
   id="g20"
   transform="translate(0,-464)">
</g>
<g
   id="g22"
   transform="translate(0,-464)">
</g>
<g
   id="g24"
   transform="translate(0,-464)">
</g>
<g
   id="g26"
   transform="translate(0,-464)">
</g>
<g
   id="g28"
   transform="translate(0,-464)">
</g>
<g
   id="g30"
   transform="translate(0,-464)">
</g>
<g
   id="g32"
   transform="translate(0,-464)">
</g>
<g
   id="g34"
   transform="translate(0,-464)">
</g>
<g
   id="g957"><path
     inkscape:connector-curvature="0"
     id="path857"
     d="m 24.000976,0.3457035 c -5.833461,0 -10.522198,1.1203776 -13.935546,3.3320313 -4.101193,2.6574037 -6.269532,6.9015122 -6.269532,12.2714832 0,7.226706 5.806266,16.88549 7.585938,19.673828 2.031747,3.183082 4.250107,6.079783 6.246093,8.15625 2.542362,2.644284 4.56815,3.875 6.373047,3.875 1.804991,0 3.829009,-1.230625 6.371093,-3.875 1.995894,-2.076376 4.214349,-4.973077 6.246094,-8.15625 C 38.397835,32.8348 44.2041,23.175924 44.2041,15.949219 44.20419,10.57934 42.0379,6.3352307 37.936523,3.6777348 34.523359,1.4660811 29.834346,0.3457035 24.000976,0.3457035 Z"
     style="fill:#006680;stroke-width:0.0924025" /><path
     inkscape:connector-curvature="0"
     id="path901"
     d="m 28.392578,45.455078 c 0.649086,-0.529194 1.251724,-0.919744 1.978516,-1.675781 1.995894,-2.076377 4.214348,-4.973078 6.246094,-8.15625 0.889836,-1.394123 2.786912,-4.505287 4.460937,-8.171875 0.837013,-1.833294 1.619262,-3.806143 2.191406,-5.771484 0.48165,-1.654488 0.691754,-3.265882 0.785157,-4.824219 l -8.384766,-8.3847659 -1.410156,16.2343749 -6.400391,1.742188 -12.330078,-1.22461 -2.353516,1.601563 4.283203,4.28125 -2.919922,0.496093 z"
     style="fill:url(#linearGradient909);fill-opacity:1;stroke:none;stroke-width:1px;stroke-linecap:butt;stroke-linejoin:miter;stroke-opacity:1;opacity:0.7" /><path
     id="path855"
     d="M 13.757812 8.328125 C 13.331182 8.328125 12.990234 8.6729795 12.990234 9.0996094 L 12.990234 26.113281 C 12.990234 26.539911 13.331183 26.882812 13.757812 26.882812 L 18.289062 26.882812 L 18.289062 30.0625 L 31.011719 30.0625 L 31.011719 26.882812 L 35.013672 26.882812 C 35.440301 26.882812 35.783203 26.539911 35.783203 26.113281 L 35.783203 9.0996094 C 35.783203 8.6729795 35.440302 8.328125 35.013672 8.328125 L 13.757812 8.328125 z M 14.539062 30.068359 L 14.539062 31.601562 L 34.261719 31.601562 L 34.261719 30.068359 L 14.539062 30.068359 z "
     style="fill:#ffffff;stroke-width:0.0924025" /><rect
     ry="0.75294101"
     y="9.9764709"
     x="14.541176"
     height="14.729412"
     width="19.717648"
     id="rect879"
     style="opacity:0.85;fill:url(#radialGradient889);fill-opacity:1;stroke:none;stroke-opacity:1" /><path
     inkscape:connector-curvature="0"
     id="path851-3"
     d="M 34.174801,15.523442 27.39355,9.9199269 v 4.9433591 c 0,0.365682 0.294474,0.660156 0.660156,0.660156 z"
     style="fill:#f9f9f9;stroke-width:0.0924025" /><path
     inkscape:connector-curvature="0"
     id="path851-3-7"
     d="m 27.39355,9.9199269 6.781251,5.6035151 v -4.943359 c 0,-0.365682 -0.294474,-0.6601561 -0.660156,-0.6601561 z"
     style="fill:#1a1a1a;stroke-width:0.0924025" /><path
     inkscape:connector-curvature="0"
     id="path4588"
     d="m 24.000977,0.3457035 c -5.833461,0 -10.522199,1.1203783 -13.935547,3.3320313 -4.101193,2.657404 -6.269532,6.9015122 -6.269532,12.2714832 0,7.226706 5.806266,16.88549 7.585938,19.673828 2.031747,3.183082 4.250107,6.079783 6.246094,8.15625 2.542362,2.644284 4.56815,3.875 6.373047,3.875 1.804991,0 3.829009,-1.230625 6.371093,-3.875 1.995894,-2.076376 4.214348,-4.973077 6.246094,-8.15625 C 38.397835,32.8348 44.204102,23.175924 44.204102,15.94922 44.204194,10.57934 42.037898,6.3352309 37.936524,3.6777348 34.52336,1.4660818 29.834346,0.3457035 24.000977,0.3457035 Z m 0,0.14453126 c 2.112445,0.084873 4.119293,0.27168527 5.875,0.69140624 1.164035,0.2782756 2.252954,0.6269196 3.263671,1.0429688 1.010718,0.4160492 1.943585,0.9002116 2.796876,1.453125 1.025343,0.6643739 1.929139,1.4277032 2.708984,2.2832031 0.779844,0.8554999 1.435774,1.803713 1.96289,2.8359375 0.527119,1.0322245 0.926199,2.1492026 1.19336,3.3437496 0.267161,1.194547 0.402367,2.466124 0.402344,3.808593 0,1.806677 -0.363402,3.765127 -0.935547,5.730469 -0.572145,1.965342 -1.352441,3.93819 -2.189453,5.771484 -1.674026,3.66659 -3.571102,6.777752 -4.460938,8.171875 -2.031746,3.183173 -4.2502,6.079876 -6.246094,8.15625 -1.271042,1.322188 -2.413501,2.291486 -3.46289,2.929688 -0.319034,0.194026 -0.618451,0.306539 -0.910156,0.390625 -0.291517,-0.08404 -0.58956,-0.196919 -0.908204,-0.390625 -1.049854,-0.638215 -2.191709,-1.607546 -3.46289,-2.929688 -1.995987,-2.076467 -4.214347,-4.973168 -6.246094,-8.15625 C 12.492,34.228877 10.594924,31.117748 8.920898,27.451171 8.083886,25.617883 7.30359,23.645021 6.731445,21.679687 6.159301,19.714353 5.795899,17.755895 5.795898,15.949218 c 0,-1.342492 0.134981,-2.614034 0.402344,-3.808593 C 6.465605,10.946066 6.866188,9.8291 7.393555,8.7968754 7.920922,7.7646508 8.576433,6.8164264 9.356445,5.9609379 10.136457,5.1054494 11.040132,4.3420858 12.06543,3.6777348 c 0.853337,-0.5529133 1.786156,-1.0370759 2.796875,-1.453125 1.010719,-0.4160492 2.099654,-0.7646932 3.263672,-1.0429688 1.755679,-0.41972098 3.762539,-0.60653321 5.875,-0.69140624 z"
     style="opacity:0.2;fill:#000000;stroke-width:0.0924025" /></g></svg>

<svg xmlns="http://www.w3.org/2000/svg" xmlns:xlink="http://www.w3.org/1999/xlink" width="48" height="48"><defs><linearGradient id="c"><stop offset="0"/><stop offset="1" stop-opacity="0"/></linearGradient><linearGradient id="b"><stop offset="0" stop-color="#515151"/><stop offset=".2" stop-color="#2b2b2b"/><stop offset=".53" stop-color="#1b1b1b"/><stop offset="1"/></linearGradient><linearGradient id="a"><stop offset="0" stop-color="#fff"/><stop offset="1" stop-color="#d3eefc"/></linearGradient><radialGradient xlink:href="#b" id="e" cx="29.94" cy="21.01" fx="29.94" fy="21.01" r="9.86" gradientTransform="matrix(.64332 -1.30459 1.46896 .72438 -20.17 44.58)" gradientUnits="userSpaceOnUse"/><linearGradient xlink:href="#c" id="d" x1="11.85" y1="6.28" x2="47.49" y2="39.16" gradientUnits="userSpaceOnUse"/></defs><path d="M24 .35c-5.83 0-10.52 1.12-13.93 3.33-4.1 2.66-6.27 6.9-6.27 12.27 0 7.23 5.8 16.88 7.58 19.67a54.48 54.48 0 0 0 6.25 8.16c2.54 2.64 4.57 3.87 6.37 3.87 1.8 0 3.83-1.23 6.37-3.87 2-2.08 4.22-4.97 6.25-8.16 1.78-2.79 7.58-12.44 7.58-19.67 0-5.37-2.16-9.61-6.26-12.27C34.52 1.47 29.84.35 24 .35z" fill="#006680"/><path d="M28.4 45.46c.64-.53 1.24-.92 1.97-1.68 2-2.08 4.22-4.97 6.25-8.16.89-1.4 2.78-4.5 4.46-8.17a43.2 43.2 0 0 0 2.19-5.77c.48-1.65.7-3.27.78-4.82l-8.38-8.39-1.41 16.24-6.4 1.74-12.33-1.23-2.35 1.6 4.28 4.29-2.92.5z" fill="url(#d)" opacity=".7"/><path d="M13.76 8.33a.77.77 0 0 0-.77.77v17.01c0 .43.34.77.77.77h4.53v3.18H31v-3.18h4c.43 0 .77-.34.77-.77V9.1a.77.77 0 0 0-.77-.77H13.76zm.78 21.74v1.53h19.72v-1.53H14.54z" fill="#fff"/><rect ry=".75" y="9.98" x="14.54" height="14.73" width="19.72" opacity=".85" fill="url(#e)"/><path d="M34.17 15.52l-6.78-5.6v4.94c0 .37.3.66.66.66z" fill="#f9f9f9"/><path d="M27.4 9.92l6.77 5.6v-4.94c0-.37-.29-.66-.66-.66z" fill="#1a1a1a"/><path d="M24 .35c-5.83 0-10.52 1.12-13.93 3.33-4.1 2.66-6.27 6.9-6.27 12.27 0 7.23 5.8 16.88 7.58 19.67a54.48 54.48 0 0 0 6.25 8.16c2.54 2.64 4.57 3.87 6.37 3.87 1.8 0 3.83-1.23 6.37-3.87 2-2.08 4.22-4.97 6.25-8.16 1.78-2.79 7.58-12.44 7.58-19.67 0-5.37-2.16-9.61-6.26-12.27C34.52 1.47 29.84.35 24 .35zm0 .14c2.11.09 4.12.27 5.88.7 1.16.27 2.25.62 3.26 1.03 1.01.42 1.94.9 2.8 1.46A12.92 12.92 0 0 1 40.6 8.8c.53 1.03.92 2.15 1.2 3.34.26 1.2.4 2.47.4 3.8 0 1.82-.37 3.77-.94 5.74a43.19 43.19 0 0 1-2.2 5.77 69.59 69.59 0 0 1-4.45 8.17 54.47 54.47 0 0 1-6.25 8.16 17.98 17.98 0 0 1-3.46 2.93c-.32.2-.62.3-.91.39-.3-.08-.6-.2-.9-.4-1.06-.63-2.2-1.6-3.47-2.92-2-2.08-4.22-4.97-6.25-8.16a69.6 69.6 0 0 1-4.46-8.17 43.19 43.19 0 0 1-2.19-5.77 20.93 20.93 0 0 1-.93-5.73c0-1.34.13-2.61.4-3.8.27-1.2.67-2.32 1.2-3.35a12.92 12.92 0 0 1 4.67-5.12 17.1 17.1 0 0 1 2.8-1.46c1-.41 2.1-.76 3.26-1.04C19.88.76 21.89.58 24 .5z" opacity=".2"/></svg>
